X: 220
T: Song of Little Girl's Play (a)
C: Teton Sioux band 1911-1914
N: Derived from sioux215.krn
O: South Dakota, U.S.A.
N: Teton Sioux Music by Frances Densmore, 1918
Z: transcribed to **kern format by Craig Sapp
L: 1/16
M: 3/4
Q: 1/4=58
K: Eb clef=treble
%%linebreak <none>
G4G F2 EE4 [I:setbarnb 2]| 
G4G F2 EE4 ||  
[M:2/4]F2 F2 F2 E2 | 
C4A,4 ||  
[M:3/4]C C D D C C C CA,4 ||  
[M:2/4]C C D D C C C C ]|:  
[M:3/4]G4G F2 EE4 ||  
[M:2/4]F4F E2 E | 
C4A,4 ||  
[M:3/4]C2 C2 D2 C2C4 ||  
[M:2/4]C4D3 C | 
C4C4 :|]  



